Newaita/actions/22/debug-run.svg

<svg height="22" viewBox="0 0 22 22" width="22" xmlns="http://www.w3.org/2000/svg"><g fill="#424242"><path d="m3.636719 1.992188c-1.007813 0-1.816407.808593-1.816407 1.816406v14.554687c0 1.007813.808594 1.820313 1.816407 1.820313h9.097656v-1.820313h-8.1875c-.503906 0-.910156-.40625-.910156-.910156v-12.734375c0-.503906.40625-.910156.910156-.910156h12.734375c.503906 0 .910156.40625.910156.910156v8.640625h1.820313v-9.550781c0-1.007813-.8125-1.816406-1.820313-1.816406zm0 0"/><path d="m2.730469 7.449219h16.371093v.910156h-16.371093zm0 0"/><path d="m15.027344 13.800781c-.269532-.011719-.492188.203125-.492188.46875v5.457031c0 .367188.402344.59375.714844.40625l4.550781-2.730468c.304688-.183594.304688-.625 0-.808594l-4.550781-2.726562c-.066406-.042969-.144531-.066407-.222656-.066407zm0 0"/><path d="m8.65625 9.640625c-.390625 0-.738281.066406-1.027344.238281-.289062.171875-.492187.449219-.605468.75-.199219.535156-.203126 1.15625-.203126 1.921875l-.648437.324219c-.160156.078125-.257813.242188-.257813.421875s.097657.34375.257813.421875l.648437.324219c0 .765625.003907 1.390625.203126 1.921875.113281.300781.316406.578125.605468.75.289063.171875.636719.238281 1.027344.238281.171875 0 .332031-.085937.417969-.234375.085937-.148438.085937-.328125 0-.476562-.085938-.148438-.246094-.234376-.417969-.234376-.285156 0-.453125-.046874-.546875-.105468-.09375-.054688-.144531-.113282-.203125-.269532-.117188-.308593-.140625-.972656-.140625-1.882812 0-.175781-.101563-.339844-.261719-.421875l-.066406-.03125.066406-.03125c.160156-.082031.261719-.246094.261719-.421875 0-.910156.023437-1.574219.140625-1.882812.058594-.15625.109375-.214844.203125-.269532.09375-.058594.261719-.105468.546875-.105468.171875 0 .328125-.089844.414062-.234376.085938-.148437.085938-.328124 0-.476562-.085937-.144531-.242187-.234375-.414062-.234375zm0 0"/><path d="m13.171875 9.640625c-.167969 0-.328125.089844-.414063.234375-.082031.148438-.082031.328125 0 .476562.085938.144532.246094.234376.414063.234376.289063 0 .457031.046874.546875.105468.09375.054688.148438.113282.207031.269532.097657.261718.128907.78125.136719 1.492187h.945312c0-.722656-.007812-1.316406-.199218-1.824219-.113282-.300781-.316406-.578125-.605469-.75-.292969-.171875-.636719-.238281-1.03125-.238281zm0 0"/></g></svg>

<svg xmlns="http://www.w3.org/2000/svg" xmlns:xlink="http://www.w3.org/1999/xlink" width="22px" height="22px" viewBox="0 0 22 22" version="1.1">
<g id="surface1">
     <defs>
  <style id="current-color-scheme" type="text/css">
   .ColorScheme-Text { color:#424242; } .ColorScheme-Highlight { color:#eeeeee; }
  </style>
 </defs>
<path style="fill:currentColor" class="ColorScheme-Text" d="M 3.636719 1.992188 C 2.628906 1.992188 1.820312 2.800781 1.820312 3.808594 L 1.820312 18.363281 C 1.820312 19.371094 2.628906 20.183594 3.636719 20.183594 L 12.734375 20.183594 L 12.734375 18.363281 L 4.546875 18.363281 C 4.042969 18.363281 3.636719 17.957031 3.636719 17.453125 L 3.636719 4.71875 C 3.636719 4.214844 4.042969 3.808594 4.546875 3.808594 L 17.28125 3.808594 C 17.785156 3.808594 18.191406 4.214844 18.191406 4.71875 L 18.191406 13.359375 L 20.011719 13.359375 L 20.011719 3.808594 C 20.011719 2.800781 19.199219 1.992188 18.191406 1.992188 Z M 3.636719 1.992188 "/>
     <defs>
  <style id="current-color-scheme" type="text/css">
   .ColorScheme-Text { color:#424242; } .ColorScheme-Highlight { color:#eeeeee; }
  </style>
 </defs>
<path style="fill:currentColor" class="ColorScheme-Text" d="M 2.730469 7.449219 L 19.101562 7.449219 L 19.101562 8.359375 L 2.730469 8.359375 Z M 2.730469 7.449219 "/>
     <defs>
  <style id="current-color-scheme" type="text/css">
   .ColorScheme-Text { color:#424242; } .ColorScheme-Highlight { color:#eeeeee; }
  </style>
 </defs>
<path style="fill:currentColor" class="ColorScheme-Text" d="M 15.027344 13.800781 C 14.757812 13.789062 14.535156 14.003906 14.535156 14.269531 L 14.535156 19.726562 C 14.535156 20.09375 14.9375 20.320312 15.25 20.132812 L 19.800781 17.402344 C 20.105469 17.21875 20.105469 16.777344 19.800781 16.59375 L 15.25 13.867188 C 15.183594 13.824219 15.105469 13.800781 15.027344 13.800781 Z M 15.027344 13.800781 "/>
     <defs>
  <style id="current-color-scheme" type="text/css">
   .ColorScheme-Text { color:#424242; } .ColorScheme-Highlight { color:#eeeeee; }
  </style>
 </defs>
<path style="fill:currentColor" class="ColorScheme-Text" d="M 8.65625 9.640625 C 8.265625 9.640625 7.917969 9.707031 7.628906 9.878906 C 7.339844 10.050781 7.136719 10.328125 7.023438 10.628906 C 6.824219 11.164062 6.820312 11.785156 6.820312 12.550781 L 6.171875 12.875 C 6.011719 12.953125 5.914062 13.117188 5.914062 13.296875 C 5.914062 13.476562 6.011719 13.640625 6.171875 13.71875 L 6.820312 14.042969 C 6.820312 14.808594 6.824219 15.433594 7.023438 15.964844 C 7.136719 16.265625 7.339844 16.542969 7.628906 16.714844 C 7.917969 16.886719 8.265625 16.953125 8.65625 16.953125 C 8.828125 16.953125 8.988281 16.867188 9.074219 16.71875 C 9.160156 16.570312 9.160156 16.390625 9.074219 16.242188 C 8.988281 16.09375 8.828125 16.007812 8.65625 16.007812 C 8.371094 16.007812 8.203125 15.960938 8.109375 15.902344 C 8.015625 15.847656 7.964844 15.789062 7.90625 15.632812 C 7.789062 15.324219 7.765625 14.660156 7.765625 13.75 C 7.765625 13.574219 7.664062 13.410156 7.503906 13.328125 L 7.4375 13.296875 L 7.503906 13.265625 C 7.664062 13.183594 7.765625 13.019531 7.765625 12.84375 C 7.765625 11.933594 7.789062 11.269531 7.90625 10.960938 C 7.964844 10.804688 8.015625 10.746094 8.109375 10.691406 C 8.203125 10.632812 8.371094 10.585938 8.65625 10.585938 C 8.828125 10.585938 8.984375 10.496094 9.070312 10.351562 C 9.15625 10.203125 9.15625 10.023438 9.070312 9.875 C 8.984375 9.730469 8.828125 9.640625 8.65625 9.640625 Z M 8.65625 9.640625 "/>
     <defs>
  <style id="current-color-scheme" type="text/css">
   .ColorScheme-Text { color:#424242; } .ColorScheme-Highlight { color:#eeeeee; }
  </style>
 </defs>
<path style="fill:currentColor" class="ColorScheme-Text" d="M 13.171875 9.640625 C 13.003906 9.640625 12.84375 9.730469 12.757812 9.875 C 12.675781 10.023438 12.675781 10.203125 12.757812 10.351562 C 12.84375 10.496094 13.003906 10.585938 13.171875 10.585938 C 13.460938 10.585938 13.628906 10.632812 13.71875 10.691406 C 13.8125 10.746094 13.867188 10.804688 13.925781 10.960938 C 14.023438 11.222656 14.054688 11.742188 14.0625 12.453125 L 15.007812 12.453125 C 15.007812 11.730469 15 11.136719 14.808594 10.628906 C 14.695312 10.328125 14.492188 10.050781 14.203125 9.878906 C 13.910156 9.707031 13.566406 9.640625 13.171875 9.640625 Z M 13.171875 9.640625 "/>
</g>
</svg>
